lib/functional/design/align-center-horizontal.svg

<svg xmlns="http://www.w3.org/2000/svg" fill="none" stroke="currentColor" aria-hidden="true" viewBox="0 0 32 32"><g id="Icon-AlignCenterHorizontal"><g clip-path="url(#clip0_8_1857)"><g id="size=md (32px)"><g id="AlignCenterHorizontal"><path id="Vector" stroke-linecap="round" stroke-linejoin="round" stroke-width="2" d="M16 4V7"/><path id="Vector_2" stroke-linecap="round" stroke-linejoin="round" stroke-width="2" d="M16 25V28"/><path id="Vector_3" stroke-linecap="round" stroke-linejoin="round" stroke-width="2" d="M16 14V18"/><path id="Vector_4" stroke-linecap="round" stroke-linejoin="round" stroke-width="2" d="M23 7H9C8.44772 7 8 7.44772 8 8V13C8 13.5523 8.44772 14 9 14H23C23.5523 14 24 13.5523 24 13V8C24 7.44772 23.5523 7 23 7Z"/><path id="Vector_5" stroke-linecap="round" stroke-linejoin="round" stroke-width="2" d="M26 18H6C5.44772 18 5 18.4477 5 19V24C5 24.5523 5.44772 25 6 25H26C26.5523 25 27 24.5523 27 24V19C27 18.4477 26.5523 18 26 18Z"/></g></g></g></g><defs><clipPath id="clip0_8_1857"><rect width="32" height="32" fill="white" rx="5"/></clipPath></defs></svg>

<svg xmlns="http://www.w3.org/2000/svg" fill="none" stroke="currentColor" aria-hidden="true" viewBox="0 0 32 32"><g stroke="#101828" stroke-linecap="round" stroke-linejoin="round" stroke-width="2" clip-path="url(#a)"><path d="M16 4v3m0 18v3m0-14v4m7-11H9a1 1 0 0 0-1 1v5a1 1 0 0 0 1 1h14a1 1 0 0 0 1-1V8a1 1 0 0 0-1-1Zm3 11H6a1 1 0 0 0-1 1v5a1 1 0 0 0 1 1h20a1 1 0 0 0 1-1v-5a1 1 0 0 0-1-1Z"/></g><defs><clipPath id="a"><rect width="32" height="32" fill="#fff" rx="5"/></clipPath></defs></svg>
